X: 648
T: Hai tai
L: 1/8
M: 2/4
K: A
B2B c [I:setbarnb 1]| 
B2F A | 
B3c | 
B2z2 | 
A2A c | 
B2A F | 
E3C | 
E2z2 | 
B c B A | 
B c B A | 
F2F A | 
D4 | 
F E F A | 
E F E D | 
B,3A, | 
B,4 |]

@@@ Tune index: 9522
